X:15
T:SHUFFLE -- REEL.
R:reel
B:Coles
Z:John Walsh <walsh:mat:h.ubc.ca>
M:C|
L:1/8
K:D
((3uABc)"^Segno"|(vdA).F.A d2 ({e}dc)|(dA).F.A (B<E) E2|(vdA).F.A d2
(dc)|\
(Bd).c.B (BA).B.c|\
(dA).F.A d2 ({e}dc)|(dA).F.A (B<E) E2|(vdA).F.A d2 (dc)|(Bd)cB
(BA)((3Bcd)|]
v"4"e2 .c.A ({F}E^D).E.A|"4"e2 cA ({c}BA).F.A|\
"4"e2 cA ({F}E^D).E.A|(Bd).c.B (A<F) F2|\
"4"e2 cA ({F}E^D).E.A|"4"e2 cA ({c}BA).F.A|"4"ee2e f2 "0"ed|\
(c"4"e).d.B {c}B(ABc)"^Segno""_D.S."|]
